%
(CirculoPrueba)
(Machine)
(  vendor: Jose Antonini)
(  model: Plasma One)
(  description: Plasma Cutter)
G90 G94
G17
G21

(2D Profile1)
G54
G0 S1000 M5
(Initial probe start)
F100 G38.3 Z-22.516
G92 Z-11.516
G0 Z0
F1000 Z1
(Initial probe end)
G0 X-2.318 Y1.884 Z15
G0 Z1
(Touch off start)
F300 G38.3 Z-22.516
G92 Z-11.516
G0 Z0
M3
G4 P0.2
F1000 Z1
(Touch off end)
(Lead In)
G1 X-4.05 Y0.884 F900
G3 X-4.3 Y0.451 I0.25 J-0.433
G1 Y-3.728 F1100
G3 X-4 Y-4.028 I0.3 J0
G1 X4
G3 X4.3 Y-3.728 I0 J0.3
G1 Y4.272
G3 X4 Y4.572 I-0.3 J0
G1 X-4
G3 X-4.3 Y4.272 I0 J-0.3
G1 Y0.451
(Lead out)
G3 X-4.05 Y0.018 I0.5 J0
G1 X-2.318 Y-0.982
M5
G0 Z5
G0 X0.2 Y-17.467
G0 Z1
(Touch off start)
F300 G38.3 Z-22.516
G92 Z-11.516
G0 Z0
M3
G4 P0.2
F1000 Z1
(Touch off end)
(Lead In)
G1 X-0.677 Y-15.67 F900
G3 X-1.091 Y-15.391 I-0.449 J-0.219
G2 X-15.375 Y-2.906 I1.091 J15.662 F1100
G2 X-15.375 Y3.45 I0.375 J3.178
G2 X-4.187 Y15.403 I15.375 J-3.178
G2 X-3.3 Y14.728 I0.187 J-0.675
G1 Y13.366
G1 X0 Y11.461
G1 X3.3 Y13.366
G1 Y14.728
G2 X4.187 Y15.403 I0.7 J0
G2 X15.375 Y3.45 I-4.187 J-15.132
G2 X15.375 Y-2.906 I-0.375 J-3.178
G2 X-1.091 Y-15.391 I-15.375 J3.178
(Lead out)
G3 X-1.541 Y-15.61 I-0.035 J-0.499
G1 X-2.659 Y-17.268
M5
G0 Z15
G1 S0
M30
%
